misc/article-icon.svg

<svg width="29" height="29" viewBox="0 0 29 29" version="1.1" xmlns="http://www.w3.org/2000/svg" xmlns:xlink="http://www.w3.org/1999/xlink">
<title>article-icon</title>
<desc>Created using Figma</desc>
<g id="Canvas" transform="translate(-9818 1288)">
<rect x="9818" y="-1288" width="29" height="29" fill="#E5E5E5"/>
<g id="World">
<g id="Rectangle">
<use xlink:href="#path0_fill" transform="translate(9798 -1303)" fill="#F2F2F2"/>
<mask id="mask0_outline_ins">
<use xlink:href="#path0_fill" fill="white" transform="translate(9798 -1303)"/>
</mask>
<g mask="url(#mask0_outline_ins)">
<use xlink:href="#path1_stroke_2x" transform="translate(9798 -1303)" fill="#F2F2F2"/>
</g>
</g>
<g id="globe">
<g id="article-icon">
<g id="Vector">
<use xlink:href="#path2_fill" transform="translate(9819 -1287)" fill="#FFFFFF"/>
<use xlink:href="#path3_stroke" transform="translate(9819 -1287)" fill="#4F4F4F"/>
</g>
<g id="Vector">
<use xlink:href="#path4_stroke" transform="translate(9832.5 -1286.96)" fill="#4F4F4F"/>
</g>
<g id="Vector">
<use xlink:href="#path5_stroke" transform="translate(9819.04 -1273.5)" fill="#4F4F4F"/>
</g>
<g id="Vector">
<use xlink:href="#path6_stroke" transform="translate(9825.55 -1286.96)" fill="#4F4F4F"/>
</g>
<g id="Vector">
<use xlink:href="#path7_stroke" transform="translate(9833.37 -1286.96)" fill="#4F4F4F"/>
</g>
<g id="Vector">
<use xlink:href="#path8_stroke" transform="translate(9822.08 -1282.18)" fill="#4F4F4F"/>
</g>
<g id="Vector">
<use xlink:href="#path9_stroke" transform="translate(9822.08 -1269.16)" fill="#4F4F4F"/>
</g>
</g>
</g>
</g>
<g id="Group">
<g id="Canvas 1">
<g id="World 1">
</g>
</g>
</g>
</g>
<defs>
<path id="path0_fill" d="M 0 0L 70 0L 70 70L 0 70L 0 0Z"/>
<path id="path1_stroke_2x" d="M 0 0L 0 -1L -1 -1L -1 0L 0 0ZM 70 0L 71 0L 71 -1L 70 -1L 70 0ZM 70 70L 70 71L 71 71L 71 70L 70 70ZM 0 70L -1 70L -1 71L 0 71L 0 70ZM 0 1L 70 1L 70 -1L 0 -1L 0 1ZM 69 0L 69 70L 71 70L 71 0L 69 0ZM 70 69L 0 69L 0 71L 70 71L 70 69ZM 1 70L 1 0L -1 0L -1 70L 1 70Z"/>
<path id="path2_fill" d="M 13.5 0C 20.9662 0 27 6.03376 27 13.5C 27 20.9662 20.9662 27 13.5 27C 6.03376 27 0 20.9662 0 13.5C 0 6.03376 6.03376 0 13.5 0Z"/>
<path id="path3_stroke" d="M 13.5 0.5625C 20.6556 0.5625 26.4375 6.34442 26.4375 13.5L 27.5625 13.5C 27.5625 5.7231 21.2769 -0.5625 13.5 -0.5625L 13.5 0.5625ZM 26.4375 13.5C 26.4375 20.6556 20.6556 26.4375 13.5 26.4375L 13.5 27.5625C 21.2769 27.5625 27.5625 21.2769 27.5625 13.5L 26.4375 13.5ZM 13.5 26.4375C 6.34442 26.4375 0.5625 20.6556 0.5625 13.5L -0.5625 13.5C -0.5625 21.2769 5.7231 27.5625 13.5 27.5625L 13.5 26.4375ZM 0.5625 13.5C 0.5625 6.34442 6.34442 0.5625 13.5 0.5625L 13.5 -0.5625C 5.7231 -0.5625 -0.5625 5.7231 -0.5625 13.5L 0.5625 13.5Z"/>
<path id="path4_stroke" d="M 0.562498 1.03494e-08C 0.562498 -0.31066 0.310659 -0.5625 -1.52588e-06 -0.5625C -0.310662 -0.5625 -0.562502 -0.31066 -0.562502 1.03494e-08L 0.562498 1.03494e-08ZM -0.562502 26.9132C -0.562502 27.2238 -0.310662 27.4757 -1.52588e-06 27.4757C 0.310659 27.4757 0.562498 27.2238 0.562498 26.9132L -0.562502 26.9132ZM -0.562502 1.03494e-08L -0.562502 26.9132L 0.562498 26.9132L 0.562498 1.03494e-08L -0.562502 1.03494e-08Z"/>
<path id="path5_stroke" d="M 26.9132 0.562498C 27.2238 0.562498 27.4757 0.310659 27.4757 -1.52588e-06C 27.4757 -0.310662 27.2238 -0.562502 26.9132 -0.562502L 26.9132 0.562498ZM 1.03494e-08 -0.562502C -0.31066 -0.562502 -0.5625 -0.310662 -0.5625 -1.52588e-06C -0.5625 0.310659 -0.31066 0.562498 1.03494e-08 0.562498L 1.03494e-08 -0.562502ZM 26.9132 -0.562502L 1.03494e-08 -0.562502L 1.03494e-08 0.562498L 26.9132 0.562498L 26.9132 -0.562502Z"/>
<path id="path6_stroke" d="M 6.42469 0.442304C 6.66897 0.250372 6.71141 -0.103247 6.51947 -0.347525C 6.32754 -0.591802 5.97392 -0.634237 5.72965 -0.442304L 6.42469 0.442304ZM 5.72965 27.3555C 5.97392 27.5474 6.32754 27.505 6.51947 27.2607C 6.71141 27.0164 6.66897 26.6628 6.4247 26.4709L 5.72965 27.3555ZM 6.07717 1.03494e-08C 5.72965 -0.442304 5.72943 -0.442136 5.72919 -0.441949C 5.72908 -0.441863 5.72882 -0.441657 5.7286 -0.441484C 5.72829 -0.441237 5.72763 -0.440716 5.72701 -0.440222C 5.72601 -0.439437 5.72414 -0.437951 5.72217 -0.436377C 5.71873 -0.433635 5.71281 -0.428892 5.70602 -0.423402C 5.69346 -0.413248 5.67321 -0.396696 5.64882 -0.37638C 5.60212 -0.337458 5.53016 -0.276209 5.4426 -0.198526C 5.27175 -0.0468023 5.01979 0.187344 4.72521 0.488691C 4.14486 1.08316 3.3516 1.99125 2.57056 3.16065C 1.02731 5.47892 -0.549895 8.99734 -0.5625 13.4566L 0.5625 13.4566C 0.549895 9.23417 2.01128 6.02429 3.50661 3.78469C 4.24486 2.67514 4.97089 1.8469 5.53001 1.27477C 5.80517 0.992821 6.02799 0.786101 6.18948 0.642783C 6.2681 0.572946 6.3267 0.523131 6.36902 0.487869C 6.38915 0.471092 6.40301 0.459772 6.41346 0.451327C 6.41817 0.447518 6.42096 0.445279 6.42337 0.443365C 6.42431 0.44261 6.42464 0.442349 6.42512 0.44197C 6.42523 0.441881 6.42524 0.441876 6.42518 0.441921C 6.42515 0.441949 6.42502 0.442045 6.42501 0.442058C 6.42486 0.442172 6.42469 0.442304 6.07717 1.03494e-08ZM -0.5625 13.4566C -0.549895 17.9158 1.02731 21.4343 2.57056 23.7525C 3.3516 24.9219 4.14486 25.83 4.72521 26.4245C 5.01979 26.7258 5.27175 26.96 5.4426 27.1117C 5.53016 27.1894 5.60212 27.2506 5.64882 27.2896C 5.67321 27.3099 5.69346 27.3264 5.70602 27.3366C 5.71281 27.3421 5.71873 27.3468 5.72217 27.3496C 5.72414 27.3511 5.72601 27.3526 5.72701 27.3534C 5.72763 27.3539 5.72829 27.3544 5.7286 27.3547C 5.72882 27.3548 5.72908 27.355 5.72919 27.3551C 5.72943 27.3553 5.72965 27.3555 6.07717 26.9132C 6.4247 26.4709 6.42486 26.471 6.42501 26.4711C 6.42502 26.4711 6.42515 26.4712 6.42518 26.4713C 6.42524 26.4713 6.42523 26.4713 6.42512 26.4712C 6.42464 26.4708 6.42431 26.4706 6.42337 26.4698C 6.42096 26.4679 6.41817 26.4657 6.41346 26.4619C 6.40301 26.4534 6.38915 26.4421 6.36902 26.4253C 6.3267 26.3901 6.2681 26.3402 6.18948 26.2704C 6.02799 26.1271 5.80517 25.9204 5.53001 25.6384C 4.97089 25.0663 4.24486 24.238 3.50661 23.1285C 2.01128 20.8889 0.549895 17.679 0.5625 13.4566L -0.5625 13.4566Z"/>
<path id="path7_stroke" d="M 0.347524 -0.442304C 0.103246 -0.634237 -0.250372 -0.591802 -0.442305 -0.347525C -0.634237 -0.103247 -0.591803 0.250372 -0.347525 0.442304L 0.347524 -0.442304ZM -0.347525 26.4709C -0.591803 26.6628 -0.634237 27.0164 -0.442305 27.2607C -0.250372 27.505 0.103246 27.5474 0.347524 27.3555L -0.347525 26.4709ZM -6.62359e-07 1.03494e-08C -0.347525 0.442304 -0.347693 0.442172 -0.347838 0.442058C -0.347855 0.442045 -0.347977 0.441949 -0.348012 0.441921C -0.348069 0.441876 -0.348062 0.441881 -0.34795 0.44197C -0.347471 0.442349 -0.347141 0.44261 -0.346196 0.443365C -0.343793 0.445279 -0.340996 0.447518 -0.336288 0.451327C -0.325844 0.459772 -0.311976 0.471092 -0.291855 0.487869C -0.249529 0.523131 -0.19093 0.572946 -0.11231 0.642783C 0.0491808 0.786101 0.271997 0.992821 0.547158 1.27477C 1.10628 1.8469 1.83231 2.67514 2.57056 3.78469C 4.06589 6.02429 5.52727 9.23417 5.51467 13.4566L 6.63967 13.4566C 6.62706 8.99734 5.04986 5.47892 3.50661 3.16065C 2.72557 1.99125 1.93231 1.08316 1.35196 0.488691C 1.05738 0.187344 0.80542 -0.0468023 0.634566 -0.198526C 0.547013 -0.276209 0.475048 -0.337458 0.428352 -0.37638C 0.403964 -0.396696 0.383707 -0.413248 0.371154 -0.423402C 0.364362 -0.428892 0.358443 -0.433635 0.355004 -0.436377C 0.353028 -0.437951 0.351155 -0.439437 0.350163 -0.440222C 0.349539 -0.440716 0.348878 -0.441237 0.348566 -0.441484C 0.348346 -0.441657 0.348085 -0.441863 0.347975 -0.441949C 0.347738 -0.442136 0.347524 -0.442304 -6.62359e-07 1.03494e-08ZM 5.51467 13.4566C 5.52727 17.679 4.06589 20.8889 2.57056 23.1285C 1.83231 24.238 1.10628 25.0663 0.547158 25.6384C 0.271997 25.9204 0.0491807 26.1271 -0.11231 26.2704C -0.19093 26.3402 -0.249529 26.3901 -0.291855 26.4253C -0.311977 26.4421 -0.325844 26.4534 -0.336288 26.4619C -0.340996 26.4657 -0.343793 26.4679 -0.346196 26.4698C -0.347141 26.4706 -0.347471 26.4708 -0.34795 26.4712C -0.348062 26.4713 -0.348069 26.4713 -0.348012 26.4713C -0.347977 26.4712 -0.347855 26.4711 -0.347838 26.4711C -0.347693 26.471 -0.347525 26.4709 -6.62359e-07 26.9132C 0.347524 27.3555 0.347738 27.3553 0.347975 27.3551C 0.348085 27.355 0.348346 27.3548 0.348566 27.3547C 0.348878 27.3544 0.349539 27.3539 0.350163 27.3534C 0.351155 27.3526 0.353028 27.3511 0.355004 27.3496C 0.358443 27.3468 0.364362 27.3421 0.371154 27.3366C 0.383707 27.3264 0.403964 27.3099 0.428353 27.2896C 0.475048 27.2506 0.547013 27.1894 0.634566 27.1117C 0.80542 26.96 1.05738 26.7258 1.35196 26.4245C 1.93231 25.83 2.72557 24.9219 3.50661 23.7525C 5.04986 21.4343 6.62706 17.9158 6.63967 13.4566L 5.51467 13.4566Z"/>
<path id="path8_stroke" d="M 0.503116 -0.251557C 0.364184 -0.52942 0.0263055 -0.642047 -0.251557 -0.503115C -0.52942 -0.364184 -0.642047 -0.0263052 -0.503115 0.251558L 0.503116 -0.251557ZM 21.3391 0.251558C 21.4781 -0.026305 21.3654 -0.364184 21.0876 -0.503115C 20.8097 -0.642047 20.4718 -0.52942 20.3329 -0.251558L 21.3391 0.251558ZM 1.6559e-07 1.6559e-07C -0.503115 0.251558 -0.50292 0.251948 -0.502716 0.252355C -0.502637 0.252513 -0.502424 0.252936 -0.502265 0.253252C -0.502072 0.253634 -0.501593 0.254582 -0.501206 0.255346C -0.500684 0.256373 -0.499513 0.258669 -0.498458 0.260718C -0.496861 0.263817 -0.493652 0.269978 -0.490399 0.276118C -0.484945 0.286386 -0.474966 0.304789 -0.463698 0.324832C -0.44338 0.360856 -0.408403 0.420369 -0.36533 0.488293C -0.2841 0.615886 -0.147872 0.812684 0.032322 1.03406C 0.380724 1.45981 0.96662 2.05771 1.79681 2.63348C 3.47174 3.7886 6.18958 4.90334 10.418 4.90334L 10.418 3.77834C 6.39885 3.77834 3.90768 2.72265 2.43551 1.70736C 1.69214 1.19792 1.21996 0.710606 0.903671 0.322455C 0.75152 0.136874 0.653749 -0.00545547 0.584068 -0.115252C 0.551685 -0.166023 0.531978 -0.19977 0.516475 -0.227332C 0.509833 -0.239083 0.506618 -0.245054 0.503355 -0.251213C 0.50225 -0.253286 0.50222 -0.253351 0.501668 -0.254426C 0.501647 -0.254463 0.501993 -0.253788 0.502005 -0.253764C 0.501885 -0.254002 0.502524 -0.252737 0.502464 -0.252855C 0.502557 -0.252672 0.50272 -0.252347 0.502766 -0.252255C 0.502937 -0.251915 0.503116 -0.251557 1.6559e-07 1.6559e-07ZM 10.418 4.90334C 14.6464 4.90334 17.3643 3.7886 19.0392 2.63348C 19.8694 2.05771 20.4553 1.45981 20.8037 1.03406C 20.9839 0.812684 21.1201 0.615886 21.2013 0.488294C 21.2444 0.420369 21.2794 0.360857 21.2997 0.324832C 21.311 0.304789 21.321 0.286386 21.3264 0.276118C 21.3297 0.269978 21.3329 0.263817 21.3345 0.260719C 21.3355 0.258669 21.3367 0.256373 21.3372 0.255346C 21.3376 0.254582 21.3381 0.253634 21.3383 0.253252C 21.3384 0.252937 21.3386 0.252513 21.3387 0.252355C 21.3389 0.251948 21.3391 0.251558 20.836 1.6559e-07C 20.3329 -0.251558 20.3331 -0.251915 20.3332 -0.252255C 20.3333 -0.252347 20.3335 -0.252672 20.3335 -0.252855C 20.3335 -0.252738 20.3341 -0.254002 20.334 -0.253764C 20.334 -0.253788 20.3344 -0.254463 20.3343 -0.254426C 20.3338 -0.253351 20.3338 -0.253286 20.3327 -0.251213C 20.3294 -0.245055 20.3262 -0.239083 20.3195 -0.227332C 20.304 -0.199771 20.2843 -0.166023 20.2519 -0.115253C 20.1823 -0.00545561 20.0845 0.136874 19.9323 0.322455C 19.6161 0.710606 19.1439 1.19792 18.4005 1.70736C 16.9283 2.72265 14.4372 3.77834 10.418 3.77834L 10.418 4.90334Z"/>
<path id="path9_stroke" d="M -0.503115 4.08928C -0.642047 4.36714 -0.52942 4.70502 -0.251557 4.84395C 0.0263055 4.98288 0.364184 4.87026 0.503116 4.59239L -0.503115 4.08928ZM 20.3329 4.59239C 20.4718 4.87026 20.8097 4.98288 21.0876 4.84395C 21.3654 4.70502 21.4781 4.36714 21.3391 4.08928L 20.3329 4.59239ZM 1.6559e-07 4.34084C 0.503116 4.59239 0.502937 4.59275 0.502766 4.59309C 0.50272 4.59318 0.502557 4.59351 0.502464 4.59369C 0.502524 4.59357 0.501885 4.59484 0.502005 4.5946C 0.501993 4.59462 0.501647 4.5953 0.501668 4.59526C 0.50222 4.59419 0.50225 4.59412 0.503355 4.59205C 0.506618 4.58589 0.509833 4.57992 0.516475 4.56817C 0.531978 4.54061 0.551685 4.50686 0.584068 4.45609C 0.653749 4.34629 0.75152 4.20396 0.903671 4.01838C 1.21996 3.63023 1.69214 3.14292 2.43551 2.63347C 3.90768 1.61818 6.39885 0.562499 10.418 0.562499L 10.418 -0.562501C 6.18958 -0.562501 3.47174 0.552232 1.79681 1.70736C 0.96662 2.28313 0.380724 2.88102 0.032322 3.30678C -0.147872 3.52815 -0.2841 3.72495 -0.36533 3.85254C -0.408403 3.92047 -0.44338 3.97998 -0.463698 4.016C -0.474966 4.03605 -0.484945 4.05445 -0.490399 4.06472C -0.493652 4.07086 -0.496861 4.07702 -0.498458 4.08012C -0.499513 4.08217 -0.500684 4.08446 -0.501206 4.08549C -0.501593 4.08625 -0.502072 4.0872 -0.502265 4.08758C -0.502424 4.0879 -0.502637 4.08832 -0.502716 4.08848C -0.50292 4.08889 -0.503115 4.08928 1.6559e-07 4.34084ZM 10.418 0.562499C 14.4372 0.562499 16.9283 1.61818 18.4005 2.63347C 19.1439 3.14292 19.6161 3.63023 19.9323 4.01838C 20.0845 4.20396 20.1823 4.34629 20.2519 4.45609C 20.2843 4.50686 20.304 4.54061 20.3195 4.56817C 20.3262 4.57992 20.3294 4.58589 20.3327 4.59205C 20.3338 4.59412 20.3338 4.59419 20.3343 4.59526C 20.3344 4.5953 20.334 4.59462 20.334 4.5946C 20.3341 4.59484 20.3335 4.59357 20.3335 4.59369C 20.3335 4.59351 20.3333 4.59318 20.3332 4.59309C 20.3331 4.59275 20.3329 4.59239 20.836 4.34084C 21.3391 4.08928 21.3389 4.08889 21.3387 4.08848C 21.3386 4.08832 21.3384 4.0879 21.3383 4.08758C 21.3381 4.0872 21.3376 4.08625 21.3372 4.08549C 21.3367 4.08446 21.3355 4.08217 21.3345 4.08012C 21.3329 4.07702 21.3297 4.07086 21.3264 4.06472C 21.321 4.05445 21.311 4.03605 21.2997 4.016C 21.2794 3.97998 21.2444 3.92047 21.2013 3.85254C 21.1201 3.72495 20.9839 3.52815 20.8037 3.30678C 20.4553 2.88102 19.8694 2.28313 19.0392 1.70736C 17.3643 0.552232 14.6464 -0.562501 10.418 -0.562501L 10.418 0.562499Z"/>
</defs>
</svg>

<svg width="29" height="29" viewBox="0 0 29 29" xmlns="http://www.w3.org/2000/svg" xmlns:xlink="http://www.w3.org/1999/xlink">
  <title>
    article-icon
  </title>



  <g transform="translate(1 1)">
    <use xlink:href="#d" fill="#FFF"/>
    <use xlink:href="#e" fill="#4F4F4F"/>
  </g>
  <use xlink:href="#f" transform="translate(14.5 1.04)" fill="#4F4F4F"/>
  <use xlink:href="#g" transform="translate(1.04 14.5)" fill="#4F4F4F"/>
  <use xlink:href="#h" transform="translate(7.55 1.04)" fill="#4F4F4F"/>
  <use xlink:href="#i" transform="translate(15.37 1.04)" fill="#4F4F4F"/>
  <use xlink:href="#j" transform="translate(4.08 5.82)" fill="#4F4F4F"/>
  <use xlink:href="#k" transform="translate(4.08 18.84)" fill="#4F4F4F"/>
  <defs>
    
    <path id="b" d="M0 0v-1h-1v1h1zm70 0h1v-1h-1v1zm0 70v1h1v-1h-1zM0 70h-1v1h1v-1zM0 1h70v-2H0v2zm69-1v70h2V0h-2zm1 69H0v2h70v-2zM1 70V0h-2v70h2z"/>
    <path id="d" d="M13.5 0C20.966 0 27 6.034 27 13.5S20.966 27 13.5 27 0 20.966 0 13.5 6.034 0 13.5 0z"/>
    <path id="e" d="M13.5.563c7.156 0 12.938 5.78 12.938 12.937h1.125c0-7.777-6.286-14.063-14.063-14.063V.563zM26.438 13.5c0 7.156-5.782 12.938-12.938 12.938v1.125c7.777 0 14.063-6.286 14.063-14.063h-1.125zM13.5 26.438C6.344 26.438.562 20.655.562 13.5H-.563c0 7.777 6.286 14.063 14.063 14.063v-1.125zM.562 13.5C.562 6.344 6.345.562 13.5.562V-.563C5.723-.563-.563 5.723-.563 13.5H.563z"/>
    <path id="f" d="M.562 0c0-.31-.25-.563-.562-.563-.31 0-.563.252-.563.563H.562zM-.563 26.913c0 .31.252.563.563.563.31 0 .562-.252.562-.563H-.563zM-.563 0v26.913H.562V0H-.563z"/>
    <path id="g" d="M26.913.562c.31 0 .563-.25.563-.562 0-.31-.252-.563-.563-.563V.562zM0-.563c-.31 0-.563.252-.563.563 0 .31.252.562.563.562V-.563zm26.913 0H0V.562h26.913V-.563z"/>
    <path id="h" d="M6.425.442c.244-.192.286-.545.094-.79-.2-.244-.55-.286-.79-.094l.69.884zM5.73 27.355c.244.192.598.15.79-.094.19-.24.15-.59-.095-.79l-.695.89zM6.077 0L5.73-.442c-.002 0-.002 0-.003.002l-.005.004-.016.013-.057.047c-.05.04-.12.1-.21.177-.17.16-.43.39-.72.69-.58.6-1.38 1.5-2.16 2.67C1.02 5.48-.55 9-.56 13.46H.563C.55 9.234 2.01 6.024 3.506 3.785c.738-1.11 1.464-1.938 2.023-2.51.27-.282.49-.49.66-.632.07-.07.13-.12.18-.155L6.41.45c.005-.002.008-.005.01-.007h.002L6.077 0zm-6.64 13.457c.013 4.46 1.59 7.977 3.134 10.296.79 1.17 1.58 2.077 2.16 2.67.3.303.55.537.72.69l.21.177.06.047.02.013.01.003.004.002.347-.442.345-.442h-.02c-.01-.01-.022-.02-.042-.03l-.18-.15c-.16-.14-.384-.35-.66-.63-.56-.57-1.284-1.4-2.022-2.51C2.01 20.89.55 17.68.56 13.46H-.563z"/>
    <path id="i" d="M.348-.442c-.245-.192-.598-.15-.79.094-.192.245-.15.598.094.79l.696-.884zM-.348 26.47c-.244.193-.286.546-.094.79.192.245.545.287.79.095l-.696-.884zM0 0l-.348.442h.002l.01.01.044.036.18.155c.16.143.384.35.66.632.558.572 1.284 1.4 2.023 2.51 1.5 2.24 2.96 5.45 2.95 9.672h1.12C6.63 8.997 5.05 5.48 3.51 3.16 2.728 1.99 1.932 1.084 1.352.49 1.057.186.805-.048.635-.2L.428-.375.37-.423.356-.436.35-.44.347-.443 0 0zm5.515 13.457c.012 4.222-1.45 7.432-2.944 9.67-.73 1.11-1.46 1.94-2.02 2.51-.27.283-.5.49-.66.633l-.18.155-.04.037-.01.008.35.443.35.442v-.002l.01-.003.02-.013.06-.047c.05-.04.12-.1.21-.178.17-.152.42-.386.72-.688.58-.594 1.374-1.502 2.155-2.67 1.547-2.32 3.12-5.838 3.137-10.297H5.52z"/>
    <path id="j" d="M.503-.252c-.14-.277-.477-.39-.755-.25-.277.138-.39.476-.25.754L.502-.252zM21.34.252c.138-.278.025-.616-.252-.755-.278-.14-.616-.026-.755.25l1.006.505zM0 0l-.503.252c0 .002 0 .003.002.003V.26c0 .005 0 .01.01.017l.02.05c.02.035.05.094.1.162.08.12.21.32.39.54.35.42.93 1.02 1.76 1.6C3.46 3.78 6.18 4.9 10.4 4.9V3.77c-4.018 0-6.51-1.055-7.98-2.07C1.69 1.192 1.22.71.902.32.752.137.652-.005.582-.115L.52-.227.503-.25v-.004.002L0 0zm10.418 4.903c4.228 0 6.946-1.114 8.62-2.27.83-.575 1.417-1.173 1.766-1.6.18-.22.316-.417.397-.545.05-.068.08-.127.1-.163l.03-.05.01-.014h.01L20.84 0l-.504-.252v-.002.003c-.004 0-.007.01-.013.02l-.07.11c-.07.11-.16.25-.32.43-.31.39-.78.87-1.53 1.38-1.47 1.01-3.96 2.07-7.98 2.07V4.9z"/>
    <path id="k" d="M-.503 4.09c-.14.277-.026.615.25.754.28.14.617.026.756-.252L-.503 4.09zm20.836.502c.14.278.477.39.755.252.277-.14.39-.477.25-.755l-1.005.5zM0 4.342l.503.25.013-.024.068-.112c.07-.11.168-.252.32-.438.316-.388.788-.875 1.532-1.385C3.908 1.618 6.4.563 10.418.563V-.564c-4.228 0-6.946 1.115-8.62 2.27C.968 2.283.38 2.88.03 3.306c-.18.22-.316.42-.397.547-.043.067-.078.127-.1.163l-.025.05c-.004.005-.007.01-.008.014l-.003.005c-.002 0-.002.002-.002.003L0 4.34zM10.418.56c4.02 0 6.51 1.056 7.983 2.07.75.51 1.22.998 1.54 1.386.15.186.25.328.32.438l.07.112.02.024.51-.25c.504-.25.504-.25.504-.253h-.002V4.08c0-.01-.003-.01-.007-.02l-.028-.05c-.02-.04-.055-.1-.1-.16-.08-.13-.215-.33-.395-.55-.35-.43-.938-1.03-1.768-1.6-1.68-1.16-4.4-2.27-8.625-2.27V.56z"/>
  </defs>
</svg>
